src/main/resources/icons/nodes/package.svg

<?xml version="1.0" encoding="UTF-8" standalone="no"?>
<svg
   xmlns:dc="http://purl.org/dc/elements/1.1/"
   xmlns:cc="http://creativecommons.org/ns#"
   xmlns:rdf="http://www.w3.org/1999/02/22-rdf-syntax-ns#"
   xmlns:svg="http://www.w3.org/2000/svg"
   xmlns="http://www.w3.org/2000/svg"
   xmlns:sodipodi="http://sodipodi.sourceforge.net/DTD/sodipodi-0.dtd"
   xmlns:inkscape="http://www.inkscape.org/namespaces/inkscape"
   width="16px"
   height="16px"
   viewBox="0 0 24 24"
   version="1.1"
   id="svg6"
   sodipodi:docname="package.svg"
   inkscape:version="0.92.3 (unknown)">
  <metadata
     id="metadata12">
    <rdf:RDF>
      <cc:Work
         rdf:about="">
        <dc:format>image/svg+xml</dc:format>
        <dc:type
           rdf:resource="http://purl.org/dc/dcmitype/StillImage" />
      </cc:Work>
    </rdf:RDF>
  </metadata>
  <defs
     id="defs10" />
  <sodipodi:namedview
     pagecolor="#ffffff"
     bordercolor="#666666"
     borderopacity="1"
     objecttolerance="10"
     gridtolerance="10"
     guidetolerance="10"
     inkscape:pageopacity="0"
     inkscape:pageshadow="2"
     inkscape:window-width="1058"
     inkscape:window-height="1154"
     id="namedview8"
     showgrid="false"
     inkscape:zoom="8"
     inkscape:cx="4.1939829"
     inkscape:cy="-7.562392"
     inkscape:window-x="1080"
     inkscape:window-y="60"
     inkscape:window-maximized="0"
     inkscape:current-layer="svg6" />
  <g
     id="g4662">
    <path
       id="svg_1"
       d="M 20,18 H 4 V 8 H 20 M 20,6 H 12 L 10,4 H 4 C 2.89,4 2,4.89 2,6 v 12 a 2,2 0 0 0 2,2 h 16 a 2,2 0 0 0 2,-2 V 8 C 22,6.89 21.1,6 20,6 Z"
       inkscape:connector-curvature="0"
       style="fill:#ffcb6b" />
    <g
       style="stroke:#80cbc4;stroke-opacity:1;stroke-width:27.24054345;stroke-miterlimit:4;stroke-dasharray:none;fill-opacity:1;fill:#80cbc4"
       transform="matrix(0.05715745,0,0,0.05715745,1.7922341,4.4189465)"
       inkscape:label="Layer 1"
       id="layer1">
      <g
         id="g4665"
         style="display:inline;stroke:#80cbc4;stroke-width:8.82214031;stroke-linecap:round;stroke-miterlimit:4;stroke-dasharray:none;stroke-opacity:1;fill-opacity:1;fill:#80cbc4"
         transform="matrix(3.0877477,0,0,3.0877477,-710.56643,-648.12716)">
        <g
           transform="matrix(0.08560933,0,0,0.08560933,262.35894,254.51517)"
           id="g4651"
           style="stroke:#80cbc4;stroke-width:103.05115469;stroke-linecap:round;stroke-miterlimit:4;stroke-dasharray:none;stroke-opacity:1;fill-opacity:1;fill:#80cbc4">
          <path
             style="fill:#80cbc4;stroke:#80cbc4;stroke-width:103.05115469;stroke-linecap:round;stroke-linejoin:miter;stroke-miterlimit:4;stroke-dasharray:none;stroke-opacity:1;fill-opacity:1"
             d="m 15.7704,277.53476 c -77.335078,-51.07827 -155.36945,-90.73475 -230.54646,-177.06147 -84.14958,-118.642156 -29.73374,-273.99235 113.41137,-243.3982 77.015116,27.639 77.602154,28.41802 116.822058,48.960788"
             id="path4631"
             inkscape:connector-curvature="0"
             sodipodi:nodetypes="cccc" />
          <path
             sodipodi:nodetypes="cccc"
             inkscape:connector-curvature="0"
             id="path4634"
             d="m 15.7704,277.53476 c 77.33508,-51.07827 155.36945,-90.73475 230.54646,-177.06147 84.14958,-118.642156 29.73374,-273.99235 -113.41137,-243.3982 -77.01511,27.639 -78.228222,28.41802 -117.448122,48.960788"
             style="fill:#80cbc4;stroke:#80cbc4;stroke-width:103.05115469;stroke-linecap:round;stroke-linejoin:miter;stroke-miterlimit:4;stroke-dasharray:none;stroke-opacity:1;fill-opacity:1" />
          <path
             style="fill:#80cbc4;stroke:#80cbc4;stroke-width:103.05115469;stroke-linecap:round;stroke-linejoin:miter;stroke-miterlimit:4;stroke-dasharray:none;stroke-opacity:1;fill-opacity:1"
             d="m 15.073311,277.01616 c -0.148924,0.22833 1.159796,0.88399 1.454542,0.0693"
             id="path4646"
             inkscape:connector-curvature="0"
             sodipodi:nodetypes="cc" />
        </g>
      </g>
    </g>
    <ellipse
       ry="2.3027344"
       rx="1.0898438"
       cy="13.318359"
       cx="7.3242188"
       id="path4650"
       style="fill:#80cbc4;fill-opacity:1;stroke:#80cbc4;stroke-width:1.55699992;stroke-miterlimit:4;stroke-dasharray:none;stroke-opacity:1" />
  </g>
</svg>

<?xml version="1.0" encoding="UTF-8"?><!DOCTYPE svg PUBLIC "-//W3C//DTD SVG 1.1//EN"
        "http://www.w3.org/Graphics/SVG/1.1/DTD/svg11.dtd">

<svg width="16px" height="16px" xmlns="http://www.w3.org/2000/svg" viewBox="0 0 24 24">
    <g>
        <path id="svg_1"
              d="m20,18l-16,0l0,-10l16,0m0,-2l-8,0l-2,-2l-6,0c-1.11,0 -2,0.89 -2,2l0,12a2,2 0 0 0 2,2l16,0a2,2 0 0 0 2,-2l0,-10c0,-1.11 -0.9,-2 -2,-2z"
              fill="#FFCB6B"/>
        <ellipse stroke="#0f0f00" ry="2.4" rx="2.4" id="svg_5"
                 cy="13.08624" cx="7.687954" stroke-width="0"
                 fill="#80CBC4"/>
    </g>
</svg>
